!!!SOCIAL_FUNCTION: tick dance songs
!!!PDT:	1943
!!!LING_GROUP: Muskogean
!!!LANG: Non-Tone
Specific Region: Oklahoma, California, Mississippi, Louisiana, Texas, Alabama
!!!REG: Southeast
!!!COM: Anon.
!!!OTL: Tick Dance Song (c)
!!!ODT: <1933//
!!!MPN: Sidney Wesley
!!!MLC: Philadelphia, Mississippi, United States of America
!! Song was recorded in January 1933.
!!!AGN: monody
!!!AMT: irregular
!!!RWG: Transcribed pitches, durations, and meters are only approximate.
**kern
*ICvox
*Imale
*clefF4
*k[b-e-a-d-]
*M2/4
*MM63
=1-
8c
8A-
4B-
*M3/4
=2
16c
16A-
16A-
16F
4F
4F
*M2/4
=3
16E-
16E-
8C
4F
*M3/4
=4
16F
16G
16A-
16F
4F
8F
16F
16r
=5
!! repeated from beginning
8c
8A-
4B-
*M3/4
=6
16c
16A-
16A-
16F
4F
4F
*M2/4
=7
16E-
16E-
8C
4F
*M3/4
=8
16F
16G
16A-
16F
4F
8F
16F
16r
*M2/4
=9
8A-
8B-
4B-
*M3/4
=10
16B-
16a-
16a-
16F
4F
8F
8F
*M2/4
=11
8A-
8c
4B-
*M3/4
=12
16B-
16A-
16A-
16F
4F
8F
16F
16r
*M2/4
=13
16E-
16E-
8C
4F
*M3/4
=14
16F
16G
16A-
16F
4F
8F
16F
16r
*M2/4
=15
16B-
16r
16a-
16r
4B-
*M3/4
=16
16B-
16A-
16A-
16F
8F
8r
8F
16F
16r
*M2/4
=17
16E-
16E-
8C
8F
8F
*M3/4
=18
16F
16G
16A-
16F
8.F
16E-
8F
16F
16r
*M2/4
=19
8A-
8c
4B-
*M3/4
=20
16B-
16A-
16A-
16F
4F
8F
16F
16r
*M2/4
=21
16E-
16E-
8C
4F
*M3/4
=22
16F
16G
16A-
16F
4F
8F
16F
16r
==
*-
!!!CNT: Choctaw
!!!TXO: Choctaw
!!!OCY: United States
!!!OCL: Frances Densmore
!!!YOR: Frances Densmore, "Choctaw Music"
!!!YOR: Bulletin 136, page 138, No. 12
!!!PPR: Smithsonian Institution, Bureau of American Ethnology
!!!PPR: Government Printing Office
!!!PDT: 1943
!!!PPP: Washington, DC, United States of America
!!!YEC: Electronic Copyright 2000 David Huron
!!!YER: August 2000
!!!YEN: United States of America
!!!ENC: David Huron
!!!RDT: August 27, 2000
!!!EEV: Release 1.0
!!!AIN: vox
